dist/images/cup.svg

<svg width="34" height="48" viewBox="0 0 34 48" fill="none" xmlns="http://www.w3.org/2000/svg">
<path fill-rule="evenodd" clip-rule="evenodd" d="M25 3H25.9085H27.0175L27.6049 3.94073L32.0127 11H34V15H30.9037H3.10234H1.50204e-05H0V14.1885L1.50204e-05 14.1885V11H1.99427L6.4103 3.93945L6.99788 3H8.10595H21V0H25V3ZM27.297 11H6.71222L9.21402 7H24.7994L27.297 11ZM5.26983 17H2.99339L3.28647 19.2575L6.79177 46.2575L7.01799 48H8.77512H25.2913H27.0514L27.2751 46.2542L30.7345 19.2542L31.0233 17H28.7507H5.26983ZM10.5323 44L7.54626 21H26.4781L23.5312 44H10.5323Z" fill="black"/>
</svg>

<svg width="34" height="48" fill="none" xmlns="http://www.w3.org/2000/svg"><path fill-rule="evenodd" clip-rule="evenodd" d="M25 3h2.017l.588.94L32.013 11H34v4H0v-4h1.994L6.41 3.94 6.998 3H21V0h4v3zm2.297 8H6.712l2.502-4h15.585l2.498 4zM5.27 17H2.993l.293 2.258 3.506 27L7.018 48h20.033l.224-1.746 3.46-27L31.023 17H5.27zm5.262 27L7.546 21h18.932l-2.947 23H10.532z" fill="#000"/></svg>
